svgs/light/hexagon.svg

<svg xmlns="http://www.w3.org/2000/svg" viewBox="0 0 512 512"><!--! Font Awesome Pro 6.0.0-alpha3 by @fontawesome - https://fontawesome.com License - https://fontawesome.com/license (Commercial License) --><path d="M505.8 233.4l-105.4-179.2C392.3 40.52 377.5 32 361.4 32H150.6c-16.11 0-30.93 8.516-39.05 22.16l-105.4 179.2c-8.234 14-8.234 31.27 0 45.27l105.4 179.2C119.7 471.5 134.5 480 150.6 480h210.8c16.11 0 30.93-8.516 39.05-22.17l105.4-179.2C514.1 264.6 514.1 247.4 505.8 233.4zM478.2 262.4l-105.3 179.1C370.5 445.5 366.1 448 361.4 448H150.6c-4.729 0-9.154-2.5-11.47-6.391l-105.4-179.2c-2.359-4.014-2.359-8.807 .002-12.82l105.3-179.1C141.5 66.5 145.9 64 150.6 64h210.8c4.73 0 9.154 2.498 11.47 6.385l105.4 179.2C480.6 253.6 480.6 258.4 478.2 262.4z"/></svg>

<svg xmlns="http://www.w3.org/2000/svg" viewBox="0 0 512 512"><!-- Font Awesome Pro 6.0.0-alpha2 by @fontawesome - https://fontawesome.com License - https://fontawesome.com/license (Commercial License) --><path d="M505.824 233.367L400.437 54.164C392.32 40.516 377.5 32 361.387 32H150.613C134.5 32 119.68 40.516 111.563 54.164L6.176 233.367C-2.059 247.367 -2.059 264.633 6.176 278.633L111.563 457.832C119.68 471.484 134.5 480 150.613 480H361.387C377.5 480 392.32 471.484 400.437 457.832L505.824 278.633C514.059 264.633 514.059 247.367 505.824 233.367ZM478.24 262.41L372.932 441.479C370.541 445.5 366.115 448 361.387 448H150.613C145.885 448 141.459 445.5 139.146 441.609L33.758 262.41C31.398 258.396 31.398 253.604 33.76 249.588L139.066 70.521C141.459 66.498 145.883 64 150.613 64H361.387C366.117 64 370.541 66.498 372.854 70.385L478.242 249.59C480.602 253.604 480.602 258.396 478.24 262.41Z"/></svg>
